black/svg/E155.svg

<svg id="emoji" viewBox="0 0 72 72" xmlns="http://www.w3.org/2000/svg">
  <g id="line">
    <path fill="none" stroke="#000" stroke-linecap="round" stroke-width="2" d="M19.5836 35C18.0986 35 16.837 36.0864 16.6168 37.555L14.5168 51.555C14.4656 51.8957 14.4737 52.2301 14.5327 52.5483C13.0333 51.8183 12 50.2798 12 48.5V36.5C12 34.0147 14.0147 32 16.5 32"/>
    <path fill="#000" d="M12 26H11C11 26.5523 11.4477 27 12 27V26ZM43 26H44C44 25.4477 43.5523 25 43 25V26ZM43 55V56C43.5523 56 44 55.5523 44 55H43ZM12 55V54C11.4477 54 11 54.4477 11 55H12ZM13 13V13V11C11.8954 11 11 11.8954 11 13H13ZM13 26V13H11V26H13ZM12 27H43V25H12V27ZM42 26V55H44V26H42ZM43 54H12V56H43V54ZM13 59V55H11V59H13ZM13 59H13H11C11 60.1046 11.8954 61 13 61V59ZM59 59H13V61H59V59ZM59 59V61C60.1046 61 61 60.1046 61 59H59ZM59 13V59H61V13H59ZM59 13H61C61 11.8954 60.1046 11 59 11V13ZM13 13H59V11H13V13Z"/>
    <path fill="none" stroke="#000" stroke-width="2" d="M12 26L42.5 26"/>
    <path fill="none" stroke="#000" stroke-width="2" d="M40 26V12.5"/>
    <line x1="12" x2="60" y1="55" y2="55" stroke="#000" stroke-width="2"/>
    <path fill="none" stroke="#000" stroke-linecap="round" stroke-width="2" d="M51.5 49C50.1193 49 49 47.8807 49 46.5C49 45.1193 50.1193 44 51.5 44"/>
    <path fill="none" stroke="#000" stroke-width="2" d="M16.6168 37.555C16.837 36.0864 18.0986 35 19.5836 35H33.4164C34.9014 35 36.163 36.0864 36.3832 37.555L38.4832 51.555C38.7553 53.3688 37.3505 55 35.5164 55H17.4836C15.6495 55 14.2447 53.3688 14.5168 51.555L16.6168 37.555Z"/>
    <rect x="17" y="29" width="19" height="6" fill="none" stroke="#000" stroke-linejoin="round" stroke-width="2"/>
    <line x1="50" x2="50" y1="20" y2="38" stroke="#000" stroke-linecap="round" stroke-width="2"/>
    <path fill="none" stroke="#000" stroke-linecap="round" stroke-width="2" d="M50 20H52"/>
    <path fill="none" stroke="#000" stroke-linecap="round" stroke-width="2" d="M50 38H52"/>
    <path fill="none" stroke="#000" stroke-linecap="round" stroke-width="2" d="M50 29L52 29"/>
  </g>
</svg>

<svg viewBox="0 0 72 72" xmlns="http://www.w3.org/2000/svg">
  <path fill="#B3B3B3" d="M68 4v64H4V4h64zm4-4H0v72h72V0z"/>
  <path fill="none" stroke="#00A5FF" stroke-miterlimit="10" stroke-width="0.1" d="M12.923 10.958h46.154A1.923 1.923 0 0161 12.881v46.154a1.923 1.923 0 01-1.923 1.923H12.923A1.923 1.923 0 0111 59.035V12.881a1.923 1.923 0 011.923-1.923v0z"/>
  <path fill="none" stroke="#00A5FF" stroke-miterlimit="10" stroke-width="0.1" d="M53.746 4H18.254A2.254 2.254 0 0016 6.254v59.492A2.254 2.254 0 0018.254 68h35.492A2.254 2.254 0 0056 65.746V6.254A2.254 2.254 0 0053.746 4z"/>
  <path fill="none" stroke="#00A5FF" stroke-miterlimit="10" stroke-width="0.1" d="M68 53.746V18.254A2.254 2.254 0 0065.746 16H6.254A2.254 2.254 0 004 18.254v35.492A2.254 2.254 0 006.254 56h59.492A2.254 2.254 0 0068 53.746z"/>
  <path fill="none" stroke="#00A5FF" stroke-miterlimit="10" stroke-width="0.1" d="M36 65c16.016 0 29-12.984 29-29S52.016 7 36 7 7 19.984 7 36s12.984 29 29 29z"/>
  <g fill="none" stroke="#fff" stroke-linecap="round" stroke-linejoin="round" stroke-miterlimit="10" stroke-width="6">
    <path d="M19.584 35a3 3 0 00-2.967 2.555l-2.1 14a3 3 0 00.016.993A4.5 4.5 0 0112 48.5v-12a4.5 4.5 0 014.5-4.5M12 26h-1a1 1 0 001 1v-1zm31 0h1a1 1 0 00-1-1v1zm0 29v1a1 1 0 001-1h-1zm-31 0v-1a1 1 0 00-1 1h1zm1-42v0-2a2 2 0 00-2 2h2zm0 13V13h-2v13h2zm-1 1h31v-2H12v2zm30-1v29h2V26h-2zm1 28H12v2h31v-2zm-30 5v-4h-2v4h2zm0 0h0-2a2 2 0 002 2v-2zm46 0H13v2h46v-2zm0 0v2a2 2 0 002-2h-2zm0-46v46h2V13h-2zm0 0h2a2 2 0 00-2-2v2zm-46 0h46v-2H13v2zm-1 13h30.5M40 26V12.5M12 55h48m-8.5-6a2.5 2.5 0 010-5"/>
    <path d="M16.617 37.555A3 3 0 0119.584 35h13.832a3 3 0 012.967 2.555l2.1 14A3 3 0 0135.516 55H17.484a3 3 0 01-2.967-3.445l2.1-14z"/>
    <path d="M17 29h19v6H17zm33-9v18m0-18h2m-2 18h2m-2-9h2"/>
  </g>
  <path fill="#fff" d="M16.617 37.555A3 3 0 0119.584 35h13.832a3 3 0 012.967 2.555l2.1 14A3 3 0 0135.516 55H17.484a3 3 0 01-2.967-3.445l2.1-14z"/>
  <path fill="#fff" fill-rule="evenodd" d="M20.744 35h-1.16a3 3 0 00-2.967 2.555l-2.1 14a3 3 0 00.016.993A4.5 4.5 0 0112 48.5v-12a4.5 4.5 0 018.744-1.5z" clip-rule="evenodd"/>
  <path fill="#6A462F" fill-rule="evenodd" d="M18 55h17a3 3 0 003-3v-7H15v7a3 3 0 003 3z" clip-rule="evenodd"/>
  <path fill="#fff" fill-rule="evenodd" d="M13 12a1 1 0 00-1 1v13h31v29H12v4a1 1 0 001 1h46a1 1 0 001-1V13a1 1 0 00-1-1H13z" clip-rule="evenodd"/>
  <rect x="49" y="19" rx="1" width="4" height="20" fill="#D0CFCE"/>
  <circle cx="51.5" cy="46.5" r="2.5" fill="#D22F27" stroke="#D0CFCE" stroke-width="2"/>
  <path fill="#fff" d="M17 29h19v6H17z"/>
  <g>
    <path fill="none" stroke="#000" stroke-linecap="round" stroke-width="2" d="M19.584 35a3 3 0 00-2.967 2.555l-2.1 14a3 3 0 00.016.993A4.5 4.5 0 0112 48.5v-12a4.5 4.5 0 014.5-4.5"/>
    <path d="M12 26h-1a1 1 0 001 1v-1zm31 0h1a1 1 0 00-1-1v1zm0 29v1a1 1 0 001-1h-1zm-31 0v-1a1 1 0 00-1 1h1zm1-42v-2a2 2 0 00-2 2h2zm0 13V13h-2v13h2zm-1 1h31v-2H12v2zm30-1v29h2V26h-2zm1 28H12v2h31v-2zm-30 5v-4h-2v4h2zm0 0h-2a2 2 0 002 2v-2zm46 0H13v2h46v-2zm0 0v2a2 2 0 002-2h-2zm0-46v46h2V13h-2zm0 0h2a2 2 0 00-2-2v2zm-46 0h46v-2H13v2z"/>
    <path fill="none" stroke="#000" stroke-width="2" d="M12 26h30.5M40 26V12.5"/>
    <path stroke="#000" stroke-width="2" d="M12 55h48"/>
    <path fill="none" stroke="#000" stroke-linecap="round" stroke-width="2" d="M51.5 49a2.5 2.5 0 010-5"/>
    <path fill="none" stroke="#000" stroke-width="2" d="M16.617 37.555A3 3 0 0119.584 35h13.832a3 3 0 012.967 2.555l2.1 14A3 3 0 0135.516 55H17.484a3 3 0 01-2.967-3.445l2.1-14z"/>
    <path fill="none" stroke="#000" stroke-linejoin="round" stroke-width="2" d="M17 29h19v6H17z"/>
    <path stroke="#000" stroke-linecap="round" stroke-width="2" d="M50 20v18"/>
    <path fill="none" stroke="#000" stroke-linecap="round" stroke-width="2" d="M50 20h2m-2 18h2m-2-9h2"/>
  </g>
</svg>
